Origami/48x48/apps/desmume.svg

<svg width="48" height="48" version="1.1" viewBox="0 0 48 48" xmlns="http://www.w3.org/2000/svg">
 <rect transform="matrix(0,-1,-1,0,0,0)" x="-45" y="-44" width="40" height="40" rx="2" ry="2" style="opacity:.2"/>
 <rect transform="matrix(0,-1,-1,0,0,0)" x="-44" y="-44" width="40" height="40" rx="2" ry="2" style="fill:#9293ff"/>
 <path transform="matrix(0,-1,-1,0,0,0)" d="m-41.999996-44h18.999996v40h-18.999996c-1.108 0-2-0.892-2-2v-36c0-1.108 0.892-2 2-2z" style="fill:#6469bb"/>
 <path d="m12 7h24v13h-24m0-13" style="fill:#3e3e3e"/>
 <path d="m16 28h16v13h-16m0-13" style="fill:#3e3e3e"/>
 <g transform="translate(-4.0200005,18.07)" style="opacity:.2">
  <rect x="13.02" y="12.93" width="3" height="9" ry="0"/>
  <rect transform="rotate(90)" x="15.93" y="-19.02" width="3" height="9" ry="0"/>
 </g>
 <g transform="translate(-4.0200005,17.07)" style="fill:#cccccc">
  <rect x="13.02" y="12.93" width="3" height="9" ry="0"/>
  <rect transform="rotate(90)" x="15.93" y="-19.02" width="3" height="9" ry="0"/>
 </g>
 <g transform="translate(8.5359798,1.7821423)" style="opacity:.2">
  <circle cx="31.964" cy="33.718" r="1.5"/>
  <g transform="translate(-4.5559803,16.287855)">
   <circle cx="30.52" cy="17.43" r="1.5"/>
   <circle transform="rotate(90)" cx="14.43" cy="-33.52" r="1.5"/>
  </g>
  <circle transform="rotate(90)" cx="36.718" cy="-28.964" r="1.5"/>
 </g>
 <g transform="translate(8.5359798 .78214264)" style="fill:#cccccc">
  <circle cx="31.964" cy="33.718" r="1.5" style="fill:#cccccc"/>
  <g transform="translate(-4.5559803,16.287855)" style="fill:#cccccc">
   <circle cx="30.52" cy="17.43" r="1.5" style="fill:#cccccc"/>
   <circle transform="rotate(90)" cx="14.43" cy="-33.52" r="1.5" style="fill:#cccccc"/>
  </g>
  <circle transform="rotate(90)" cx="36.718" cy="-28.964" r="1.5" style="fill:#cccccc"/>
 </g>
 <g style="opacity:.2">
  <rect x="6" y="15" width="4" height="1"/>
  <rect x="6" y="17" width="4" height="1"/>
  <rect x="6" y="19" width="4" height="1"/>
 </g>
 <g transform="translate(32)" style="opacity:.2">
  <rect x="6" y="15" width="4" height="1"/>
  <rect x="6" y="17" width="4" height="1"/>
  <rect x="6" y="19" width="4" height="1"/>
 </g>
 <rect x="4" y="23" width="40" height="2" style="opacity:.2"/>
 <path d="m6 4c-1.108 0-2 0.892-2 2v1c0-1.108 0.892-2 2-2h36c1.108 0 2 0.892 2 2v-1c0-1.108-0.892-2-2-2h-36z" style="fill:#ffffff;opacity:.2"/>
</svg>

<svg xmlns="http://www.w3.org/2000/svg" width="48" height="48" version="1.1" viewBox="0 0 48 48">
 <rect style="opacity:0.2" width="40" height="40" x="-45" y="-44" rx="2" ry="2" transform="matrix(0,-1,-1,0,0,0)"/>
 <rect style="fill:#9293ff" width="40" height="40" x="-44" y="-44" rx="2" ry="2" transform="matrix(0,-1,-1,0,0,0)"/>
 <path style="fill:#6469bb" d="M -41.999996,-44 H -23 v 40 h -18.999996 c -1.108,0 -2,-0.892 -2,-2 v -36 c 0,-1.108 0.892,-2 2,-2 z" transform="matrix(0,-1,-1,0,0,0)"/>
 <path style="fill:#3e3e3e" d="M 12,7 H 36 V 20 H 12 M 12,7"/>
 <path style="fill:#3e3e3e" d="M 16,28 H 32 V 41 H 16 m 0,-13"/>
 <g style="opacity:0.2" transform="translate(-4.0200005,18.07)">
  <rect width="3" height="9" x="13.02" y="12.93" ry="0"/>
  <rect width="3" height="9" x="15.93" y="-19.02" ry="0" transform="rotate(90)"/>
 </g>
 <g style="fill:#cccccc" transform="translate(-4.0200005,17.07)">
  <rect width="3" height="9" x="13.02" y="12.93" ry="0"/>
  <rect width="3" height="9" x="15.93" y="-19.02" ry="0" transform="rotate(90)"/>
 </g>
 <g style="opacity:0.2" transform="translate(8.5359798,1.7821423)">
  <circle cx="31.964" cy="33.718" r="1.5"/>
  <g transform="translate(-4.5559803,16.287855)">
   <circle cx="30.52" cy="17.43" r="1.5"/>
   <circle cx="14.43" cy="-33.52" r="1.5" transform="rotate(90)"/>
  </g>
  <circle cx="36.718" cy="-28.964" r="1.5" transform="rotate(90)"/>
 </g>
 <g style="fill:#cccccc" transform="translate(8.5359798,0.78214264)">
  <circle style="fill:#cccccc" cx="31.964" cy="33.718" r="1.5"/>
  <g style="fill:#cccccc" transform="translate(-4.5559803,16.287855)">
   <circle style="fill:#cccccc" cx="30.52" cy="17.43" r="1.5"/>
   <circle style="fill:#cccccc" cx="14.43" cy="-33.52" r="1.5" transform="rotate(90)"/>
  </g>
  <circle style="fill:#cccccc" cx="36.718" cy="-28.964" r="1.5" transform="rotate(90)"/>
 </g>
 <g style="opacity:0.2">
  <rect width="4" height="1" x="6" y="15"/>
  <rect width="4" height="1" x="6" y="17"/>
  <rect width="4" height="1" x="6" y="19"/>
 </g>
 <g style="opacity:0.2" transform="translate(32)">
  <rect width="4" height="1" x="6" y="15"/>
  <rect width="4" height="1" x="6" y="17"/>
  <rect width="4" height="1" x="6" y="19"/>
 </g>
 <rect style="opacity:0.2" width="40" height="2" x="4" y="23"/>
 <path style="fill:#ffffff;opacity:0.2" d="M 6 4 C 4.892 4 4 4.892 4 6 L 4 7 C 4 5.892 4.892 5 6 5 L 42 5 C 43.108 5 44 5.892 44 7 L 44 6 C 44 4.892 43.108 4 42 4 L 6 4 z"/>
</svg>
